X:1
T:Heigh ho! I'll go to plough no more - Mundy
T:#
%%score { 1 | 2 } 3 4
L:1/8
Q:1/4=132
M:4/2
K:F
V:1 treble nm="Soprano I" snm="S"
V:2 treble 
V:3 treble nm="Alto" snm="A"
V:4 bass nm="Bass" snm="B"
V:1
"^Heigh ho! I'll go to plough no more""^John Mundy\n(c. 1555-1630)" c4 A2 c2 d2 c2 d2 e2 | %1
w: Heigh ho! I'll go to plough no|
 f2 F2 c2 A2 B2 F2 B2 c2 |[M:4/2] A4 F4 B2 A2 G2 F2 | E4 A4 d2 c2 B2 A2 | G2 G2 A2 A2 B4 d4 | %5
w: more, no more, I'll go to plough no|more, Sit down and take thy|rest, sit down and take thy|rest; Of gol- den groats I|
 d4 c4 =B2 G2 d4 | =B2 B2 c4 A4 z2 d2 | (g4 e4) d2 c4 =B2 | c4 z2 G2 d2 f2 d2 e2 | %9
w: have good store, to flaunt|it, to flaunt it, to|flaunt * it with the|best, But I love, and I|
 f2 (c2 B4) A6 B2 | B4 B4 A6 d2 | f4 e4 d8 | z16 | z4 d2 g4 e2 c4 | d2 f4 e2 f6 F2 | %15
w: love, I * love, and|who think you, and|who think you?||The fin- est lass|that e'er you knew, that|
 B2 B2 G4 z4 d4 | g3 g e2 c2 f4 d4 | c12 A4 | B6 B2 f4 _e4 | d6 d2 ||[M:4/2][Q:1/4=264] d12 z16 | %21
w: e'er you knew, the|fin- est lass that e'er you|knew, Which|makes me sing when|I should|cry.|
 z16 | z16 | g12 d8 | =B4 x8 z4 | x16 |[M:3/2][Q:1/4=264][Q:1/4=264][Q:1/4=264] c4 A8 | =B8 B4 | %28
w: ||Heigh ho!|for||love I|die, I|
 G8 c4 | B6 (A2 G4) | G8 ^F4 | G12 | z12 | z12 | z12 | f12 | c8 A4 | B4 G8 | A8 A4 | A6 (G2 F4) | %40
w: die, heigh|ho! for *|love I|die,||||Heigh|ho! for|love I|die, heigh|ho! for *|
 F8 E4 | F16 |] %42
w: love I|die.|
V:2
 z16 | c4 A2 c2 d2 c2 d2 e2 |[M:4/2] f2 c2 c2 A2 d2 c2 B2 A2 | G4 z2 F2 B2 A2 G2 (F2 | %4
w: |Heigh ho! I'll go to plough no|more, no more, sit down and take thy|rest, sit down and take thy|
 E4) F2 c2 d2 d2 f4 | B2 f4 e2 d4 z2 D2 | G4 E4 z2 c2 f4 | e4 z2 c2 A2 F2 G3 F | E8 z4 G4 | %9
w: * rest; of gol- den groats|I have great store, to|flaunt it, to flaunt|it, to flaunt it with the|best, But|
 c2 f2 d2 e2 f6 d2 | _e4 d4 c4 A4 | d4 c4 =B8 | A2 d4 =B2 A2 G2 c2 A2 | =B8 G2 c4 A2 | %14
w: I love, and I love, and|who think you, and|who think you?|The fin- est lass that e'er you|knew, the fin- est|
 G2 F2 B2 G2 A6 d2- | d2 g4 e2 d2 c2 f4 | e4 c2 A4 B4 (A2 | G2 F2 G4) A4 c4 | d6 d2 d4 c4 | %19
w: lass that e'er you knew, the|* fin- est lass that e'er|you knew, that e'er you|* * * knew, Which|makes me sing when|
 A2 (G2 A4) ||[M:4/2] =B12 x16 | c12 x4 | =B8 G4 x4 | A4 F8 x8 | E8 c4 z4 | =B8 G4 z4 | %26
w: I should *|cry.|Heigh|ho! for|love I|die, heigh|ho! for|
[M:3/2] G8 ^F4 | G12 | g12 | d8 =B4 | c4 A8 | =B12 | G12 | A8 B4 | B4 c8 | d12 | z12 | z12 | f12 | %39
w: love I|die,|heigh|ho! for|love I|die,|heigh|ho! for|love I|die,|||heigh|
 c8 A4 | B4 G8 | A16 |] %42
w: ho! for|love I|die.|
V:3
 F4 F2 F2 B2 A2 G2 c2 | A4 F4 F2 (C2 G4) |[M:4/2] F4 F4 B,2 C2 _E2 F2 | C4 C4 F2 _E2 E2 C2 | %4
w: Heigh ho! I'll go to plough no|more, to plough no *|more, Sit down and take thy|rest, sit down and take thy|
 C6 F2 F2 F2 B4 | F4 B2 G2 G8 | z2 G,2 C4 C2 A,2 D4 | C2 G2 G3 G F2 (C2 D4) | C4 E4 F2 c2 B2 B2 | %9
w: rest; Of gol- den groats|I have good store,|to flaunt it, to flaunt|it, to flaunt it with the *|best, But I love, and I|
 A2 A,2 B,4 C6 F2 | G4 F4 F4 F4 | B4 G4 G4 G4 | ^F3 F G4 E2 E4 F2 | G6 D2 E2 G2 F4 | %14
w: love, and I love, And|who think you, and|who think you? The|fin- est lass that e'er you|knew, the fin- est lass|
 D4 B,2 B,2 C2 A,2 D3 D | B,2 G,2 C4 (A,4 F,4) | C8 D4 F4- | F4 E4 F4 F4 | F6 F2 B4 (G4 | %19
w: that e'er you knew, the fin- est|lass that e'er you *|knew, that e'er|* you knew, Which|makes me sing when|
 ^F2) G4 F2 ||[M:3/2] G12 x16 | E12 x4 | D8 C4 x4 | C8 B,4 x8 | C8 C4 z4 | G8 G4 z4 | %26
w: * I should|cry.|Heigh|ho! for|love I|die, heigh|ho! for|
[M:3/2] C4 D8 | D8 D4 | E8 G4 | G8 D4 | E4 D8 | D12 | E12 | F8 F4 | G8 A4 | B8 B4 | A8 F4 | F8 E4 | %38
w: love I|die, heigh|ho! for|love, for|love I|die,|heigh|ho! for|love I|die, heigh|ho! for|love I|
 F8 C4 | F8 C4 | D4 C8 | C16 |] %42
w: die, heigh|ho! for|love I|die.|
V:4
 z16 | F,4 F,2 F,2 B,2 A,2 G,2 C2 |[M:4/2] F,8 z4 z4 | z4 F,4 B,,2 C,2 _E,2 F,2 | %4
w: |Heigh ho! I'll go to plough no|more,|Sit down and take thy|
 C,2 C,2 F,2 F,2 B,,4 B,,4 | B,,6 C,2 G,8 | z4 z2 C,2 F,4 D,4 | z2 C,2 C4 F,2 A,2 G,4 | %8
w: rest; Of gol- den groats I|have great store,|To flaunt it,|to flaunt it with the|
 C,4 C2 C2 B,2 A,2 G,4 | F,4 G,4 F,6 B,,2 | _E,4 B,,4 F,6 D,2 | B,,4 C,4 G,4 G,4 | %12
w: best, But I love, and I|love, I love and|who think you, and|who think you? The|
 D3 D =B,2 G,2 C4 A,4 | G,4 z2 G,2 C3 C A,2 F,2 | B,4 G,4 F,4 z2 D,2 | G,3 G, E,2 C,2 F,4 D,4 | %16
w: fin- est lass that e'er you|knew, the fin- est lass that|e'er you knew, the|fin- est lass that e'er you|
 C,6 F,2 D,4 (B,,4 | C,8) F,4 F,4 | B,6 B,2 B,4 C4 | D4 D4 ||[M:3/2] G,12 x16 | C12 x4 | %22
w: knew, that e'er you|* knew, Which|makes me sing when|I should|cry.|Heigh|
 G,8 E,4 x4 | F,4 D,8 x8 | C,12 z4 | z16 |[M:3/2] z12 | G,12 | E,8 C,4 | G,8 G,4 | C,4 D,8 | G,12 | %32
w: ho! for|love I|die,|||heigh|ho! for|love, for|love I|die,|
 C12 | F,8 D,4 | _E,4 C,8 | B,,8 B,,4 | F,8 F,4 | B,4 C8 | F,8 F,4 | F,8 F,4 | B,,4 C,8 | F,16 |] %42
w: heigh|ho! for|love I|die, heigh|ho! for|love I|die, heigh|ho! for|love I|die.|

